X:17
T:Josefin's Dopvals
C:Roger Tallroth
M:3/4
R:waltz
L:1/4
K:G
|:"G"DGA | Bdc | BAG | D2D | "C"C>CC | EGF | "Am"E3 | "D7"D3 |
"G"DGA | Bdc | BAG | D2E | "C"C>CC | EFG | [1"D"(A3 | A3):| [2"D"(A3 | A)Bc |
|:"G"dBd | g2f | "C"e3| "G/B"d3 | "Am"ced | "D"cBA | "G"B>cB | "D"ABc |
"G"dBd | g2f | "C"e3 | "G/B"d3 | "Am"ced | "D7"cBA | "G"B>cB |"D"ABc |
"Em"BAG | "Em/D"F2G | "C"E3 | "Am"C>DC | "G"B,DG | "D7"FEF | [1"G"(G3 | G)Bc :|[2"G"(G3 | G3) |]
